X:93
T:Fireman's Q.S.
M:2/4
Q:1/4=100
L:1/16
K:D
%%MIDI channel 1
%%MIDI program 72
%%MIDI transpose 8
%%MIDI grace 1/8
%%MIDI ratio 3 1
%%staves (1 2)
V:1
d2fd c2ec|d2fd A4|BGBd cdec|defg abaf|d2fd c2ec|d2fd A4|BGBd cdec|d2f2d2 z2::
a4 a4|a6 ef|gfed cdec|defd A4|a4 a4|a6 ef|gfed cdec|d2f2d2 z2:|
V:2
x8|x8|x8|x8|x8|x8|x8|x8::x8|x8|x8|x8|x8|x8|x8|x8:|
%%staves [1 2]
V:1
"2nd Fife"A2FF G2FF|A2FF A4|GEGB A2G2|FBAB cedA|A2FF G2EE|A2FF F4|"2nd and 3rd Fife by N. Langer"GEGB A2G2|F2A2F2z2::
dAFA dAFA|dFAd dFA2|GABA GAG2|ABAA F4|dAFA dAFA|dFAd dFA2|GABA GAG2|F2A2F2z2:|
V:2
"3rd Fife"F2AA E2GG|F2AA D2A,2|C2EE F2E2|D2FF G2F2|F2AA E2GG|F2AA D2A,2|C2EE F2E2|D2F2D2z2::
F2DD F2DD|A2F2 A2F2|EFGF C2E2|FGFF D4|F2DD F2DD|A2F2 A2F2|EFGF C2E2|D2F2D2z2:|
